do
  d1
    $ stack [
      -- gap 3 $ n "0 1 2 3 4 5 6" # sound "superpiano"
      -- chop 3 $ n "0 1 2 3 4 5 6" # sound "superpiano"
      -- striate 3 $ n "0 1 2 3 4 5 6" # sound "superpiano"
    ]

hush
