-- https://tidalcycles.org/index.php/Oscillators#cosine
-- https://tidalcycles.org/index.php/rand
-- https://tidalcycles.org/index.php/choose

do
  d1
    $ stack [
      -- sound "bd*8" # pan (slow 2 sine)
      -- sound "bd*8" # pan (slow 2 cosine)
      -- sound "bd*8" # pan (slow 2 square)
      -- sound "bd*8" # pan (slow 2 tri)
      -- sound "bd*8" # pan (slow 2 saw)
      -- sound "bd*8" # pan (slow 2 isaw)
      -- sound "bd*8" # pan (slow 2 rand)
      -- sound "bd*8" # pan (slow 2 (irand 2))
      -- sound "bd*8" # pan (slow 2 (choose [0, 0.5, 1, 1.5]))
      -- sound "bd*8" # pan (slow 2 (chooseBy "0.25 0.75" [0, 1]))
    ]

hush
