-- https://tidalcycles.org/index.php/Category:Higher-order_functions

do
  d1
    $ stack [
      -- somtimes
      -- always (# crush 3) $ n "0 1 2 3 4 5 6" # sound "arpy" 
      -- almostAlways (# crush 3) $ n "0 1 2 3 4 5 6" # sound "arpy"
      -- often (# crush 3) $ n "0 1 2 3 4 5 6" # sound "arpy"
      -- sometimes (# crush 3) $ n "0 1 2 3 4 5 6" # sound "arpy"
      -- rarely (# crush 3) $ n "0 1 2 3 4 5 6" # sound "arpy"
      -- almostNever (# crush 3) $ n "0 1 2 3 4 5 6" # sound "arpy"
      -- never (# crush 3) $ n "0 1 2 3 4 5 6" # sound "arpy"
      -- sometimesBy 0.5 (# crush 3) $ n "0 1 2 3 4 5 6" # sound "arpy"
      -- every
      -- every 3 (fast 2) $ n "0 1 2 3 4 5 6" # sound "arpy"
      -- every' 3 1 (fast 2) $ n "0 1 2 3 4 5 6" # sound "arpy"
      -- foldEvery [3, 4, 5] (fast 2) $ n "0 1 2 3 4 5 6" # sound "arpy"
      -- fix
      -- fix (# crush 3) (n "[1,4]") $ n "0 1 2 3 4 5 6" # sound "arpy"
      -- jux and asymmetric play
      -- jux ((# speed "0.5") . rev) $ n "0 1 2 3 4 5 6" # sound "arpy"
      -- juxBy 0.5 ((# speed "0.5") . rev) $ n "0 1 2 3 4 5 6" # sound "arpy"
      -- superimpose (fast 1) $ n "0 1 2 3 4 5 6" # sound "arpy"
      -- off 0.5 (# crush 3) $ n "0 1 2 3 4 5 6" # sound "arpy"
    ]

hush
