do
  d1
    $ stack [
      -- rev $ slow 32 $ striate' 200 (1/200) $ sound "bev",
      -- slow 4 $ striate 3 $ sound "numbers:0 numbers:1 numbers:2 numbers:3"
    ]
    -- # lpf (range 2000 18000 $ slow 16 $ sine)
    -- # room "0.8"
    # size "0.8"

do
  let
    pat = "{1 0/2 1 0 1 0 1/2 1 1 0 1/3 0 1 0 0 1/3}%8"
    inverse 1 = 0
    inverse 0 = 1
  d2
    $ whenmod 16 15 (rev)
    -- $ sometimesBy 0.4 (jux (0.125 ~>))
    -- $ sometimesBy 0.1 (1.25 <~)
    $ stack [
      -- chunk 4 (hurry 2) $ slow 2 $ n (fit 3 [0,1,2,3,4] "0 [~ 1] 2 3") # sound "tabla2" #legato 1,
      -- sound "bd hh bd*2? bd?",
      -- gain (inverse <$> pat) # sound "noise" # n (irand 12) # pan (rand) # shape "0.5",
      gain pat # sound "glitch" # n (choose[1,3,4,5])
    ]
    # delay "0.5" # delaytime (choose [1/2, 1/4]) # delayfeedback "0.5"
    -- # lpf (range 2000 18000 $ slow 16 $ sine)

hush
