do
  d1
    $ stack [
      -- sound "bd*16"
        -- # accelerate "<0 1 -1 0.25 -0.5 2.1 -3>"
        -- # attack "<0 0.1 0.2 0.3 0.5>"
        -- # bpf "100 1000 2000" # bpq "100 1000 2000"
        -- # coarse "<4 8 16 24>"
        -- # crush "<16 4 2>"
        -- # cut "1"
        -- # hpf "100 1000 2000 5000" # hpq "0 0.2 0.4 0.6"
        -- # lpf "100 1000 2000" # lpq "0 0.2 0.4 0.6"
        -- # delayfb "[0.1 0.5 0.9]" # delaytime "<0 0.01 0.1 0.2 0.5>" # delay "0.5"
        -- # room 0.9 # sz 0.9
        -- # gain (slow 3 $ sine)
        -- # loop "2"
      -- sound "bev"
        -- # begin "<0 0.5 1>"
        -- # cut "[1 2 3]*3"
        -- # end "<0 0.25 0.5>"
        sound "bd bd/4",
        sound "hh(5,8)"
    ]
    # nudge "[0 0.8]*4"

hush
